X: 38
T: Lautrier la pieca
N: Derived from Bus3034-Lautrier_la_pieca.krn
C: Antoine Busnoys
%%abc-version 2.0
%%abcx-abcm2ps-target-version 5.9.1 (29 Sep 2008)
%%abc-creator hum2abc beta
%%abcx-conversion-date 2019/02/16 20:26:07
%%abc-edited-by Jesse Rodin
%%abc-edited-by Chris Gage 04-13-2015
%%abcx-initial-encoding-date 2015/05/05/
%%humdrum-veritas 1757600596
%%humdrum-veritas-data 1673084268
%%linebreak <none>
%%barnumbers 0
L: 1/4
M: 2/1
Q: 1/2=120
%%staves [1 2 3 4]
V: 1 clef=treble
V: 2 clef=treble-8
V: 3 clef=treble-8
V: 4 clef=treble-8
K: C
[V:1] d8- | 
[V:2] a8 | 
[V:3] z8 | 
[V:4] d8 | 
[V:1] d8 | 
[V:2] f4a4 | 
[V:3] z8 | 
[V:4] d4d4 | 
[V:1] B4c4 | 
[V:2] g6fe | 
[V:3] z8 | 
[V:4] e6dc | 
[V:1] d4c4 | 
[V:2] d4e4 | 
[V:3] z8 | 
[V:4] B4c4 | 
[V:1] B4A4 | 
[V:2] f6e2 | 
[V:3] d4d4 | 
[V:4] d6cB | 
[V:1] d8 | 
[V:2] f4g4 | 
[V:3] d4d4 | 
[V:4] B4B4 | 
[V:1] c6B2 | 
[V:2] a6gf | 
[V:3] e6d2 | 
[V:4] A6G2 | 
[V:1] A4A4 | 
[V:2] e4f4 | 
[V:3] c4c4 | 
[V:4] A4F4 | 
[V:1] G8 | 
[V:2] e4d4 | 
[V:3] c4B4 | 
[V:4] z4G4 | 
[V:1] z4G4 | 
[V:2] e8 | 
[V:3] c4z4 | 
[V:4] E2C3DE2 | 
[V:1] A4c3B | 
[V:2] z8 | 
[V:3] f4f4 | 
[V:4] D2F3GA2- | 
[V:1] c2d2c2B2 | 
[V:2] a8 | 
[V:3] f4f4 | 
[V:4] A2F2D4- | 
[V:1] A4D4 | 
[V:2] f4a4 | 
[V:3] f4f4 | 
[V:4] D2E2F4 | 
[V:1] z2G4A2 | 
[V:2] g6fe | 
[V:3] e6f2 | 
[V:4] C4c4 | 
[V:1] B6c2 | 
[V:2] d4e4 | 
[V:3] g6fe | 
[V:4] B4G4 | 
[V:1] d3cA2B2 | 
[V:2] f6ed | 
[V:3] d4f4 | 
[V:4] z4D4 | 
[V:1] A2c3BAG | 
[V:2] c4c4 | 
[V:3] e8 | 
[V:4] A8 | 
[V:1] F8 :|]  
[V:2] d8 :|]  
[V:3] d8 :|]  
[V:4] D8 :|]  
[V:1]  [K:C] [K:clef=treble][M:2/1]z8 | 
[V:2]  [K:C] [K:clef=treble-8][M:2/1]d4e4 | 
[V:3]  [K:C] [K:clef=treble-8][M:2/1]A4B4 | 
[V:4]  [K:C] [K:clef=treble-8][M:2/1]F4E4 | 
[V:1] A4B4 | 
[V:2] d4g4 | 
[V:3] A4d4- | 
[V:4] F4G4 | 
[V:1] A4d4- | 
[V:2] f4a4- | 
[V:3] d4f4 | 
[V:4] D8 | 
[V:1] d2B2^c4 | 
[V:2] a2g2e4 | 
[V:3] e8 | 
[V:4] A8 | 
[V:1] d8 ]|:  
[V:2] [f8a8] ]|:  
[V:3] d8 ]|:  
[V:4] D8 ]|:  
[V:1]  [K:C] [K:clef=treble][M:2/1]A8 | 
[V:2]  [K:C] [K:clef=treble-8][M:2/1]d4d4 | 
[V:3]  [K:C] [K:clef=treble-8][M:2/1]z8 | 
[V:4]  [K:C] [K:clef=treble-8][M:2/1]z8 | 
[V:1] B4d4- | 
[V:2] d4d4 | 
[V:3] z8 | 
[V:4] G4F4 | 
[V:1] d4^c4 | 
[V:2] e4e4 | 
[V:3] z8 | 
[V:4] G4A4 | 
[V:1] d6cB | 
[V:2] f8 | 
[V:3] d4d4 | 
[V:4] D8 | 
[V:1] A8 | 
[V:2] z4f3d | 
[V:3] d4d4 | 
[V:4] z4D4 | 
[V:1] z8 | 
[V:2] c8 | 
[V:3] e4e4 | 
[V:4] A6G2 | 
[V:1] A8- | 
[V:2] z8 | 
[V:3] f8- | 
[V:4] F4D4 | 
[V:1] A4B4 | 
[V:2] z8 | 
[V:3] f4e3d | 
[V:4] F4G4 | 
[V:1] c4A4 | 
[V:2] e4e4 | 
[V:3] c8 | 
[V:4] A4c4 | 
[V:1] B2c3AB2 | 
[V:2] f6ed | 
[V:3] z8 | 
[V:4] B2A4G2 | 
[V:1] c2BAG4 | 
[V:2] c4c4 | 
[V:3] e4e4 | 
[V:4] A2GFE4 | 
[V:1] F2A4GF | 
[V:2] d8 | 
[V:3] f6ed | 
[V:4] z4D4 | 
[V:1] E2D2E4 | 
[V:2] z8 | 
[V:3] c4c4 | 
[V:4] A4A4 | 
[V:1] D4z4 :|]|:  
[V:2] z8 :|]|:  
[V:3] d8 :|]|:  
[V:4] D8 :|]|:  
[V:1]  [K:C] [K:clef=treble][M:2/1]F6G2 | 
[V:2]  [K:C] [K:clef=treble-8][M:2/1]a8 | 
[V:3]  [K:C] [K:clef=treble-8][M:2/1]z8 | 
[V:4]  [K:C] [K:clef=treble-8][M:2/1]d8 | 
[V:1] A4F4 | 
[V:2] f4a4 | 
[V:3] z8 | 
[V:4] d4d4 | 
[V:1] D4E4 | 
[V:2] g6fe | 
[V:3] z8 | 
[V:4] _B4c4 | 
[V:1] F2D4^C2 | 
[V:2] d4e4 | 
[V:3] z8 | 
[V:4] d4A4 | 
[V:1] D4z4 | 
[V:2] f6e2 | 
[V:3] d4d4 | 
[V:4] z4_B4- | 
[V:1] d8 | 
[V:2] f4g4 | 
[V:3] d4d4 | 
[V:4] B2_B2_B4 | 
[V:1] c6B2 | 
[V:2] a6gf | 
[V:3] e6d2 | 
[V:4] A6A2 | 
[V:1] A4A4 | 
[V:2] e4f4 | 
[V:3] c4c4 | 
[V:4] A4F4 | 
[V:1] G4z4 | 
[V:2] e4d4 | 
[V:3] c4B4 | 
[V:4] z4G4 | 
[V:1] G4c3B | 
[V:2] e8 | 
[V:3] c4z4 | 
[V:4] E3FG2A2 | 
[V:1] c4d4 | 
[V:2] z8 | 
[V:3] f4f4 | 
[V:4] z2A2D4 | 
[V:1] c4A4 | 
[V:2] a8 | 
[V:3] f4f4 | 
[V:4] z4F4- | 
[V:1] z4F4 | 
[V:2] f4a4 | 
[V:3] f4f4 | 
[V:4] F2D3EF2 | 
[V:1] c4B2B2- | 
[V:2] g6fe | 
[V:3] e4z2f2 | 
[V:4] C4G4 | 
[V:1] B2A2G4 | 
[V:2] d4e4 | 
[V:3] g6fe | 
[V:4] B4c4 | 
[V:1] F2_B2A2F2- | 
[V:2] f6ed | 
[V:3] d4f4 | 
[V:4] d2_B3cd2 | 
[V:1] FGA3GE2 | 
[V:2] c4c4 | 
[V:3] e8 | 
[V:4] A6G2 | 
[V:1] F8 | 
[V:2] d8 | 
[V:3] d8 | 
[V:4] F4D4 | 
[V:1] z8 | 
[V:2] d4e4 | 
[V:3] A4B4 | 
[V:4] F4E4 | 
[V:1] A4B4 | 
[V:2] d4g4 | 
[V:3] A4d4- | 
[V:4] F4G4 | 
[V:1] A4d4- | 
[V:2] f4a4- | 
[V:3] d4f4 | 
[V:4] D8 | 
[V:1] d4^c4 | 
[V:2] a2g2e4 | 
[V:3] e8 | 
[V:4] A8 | 
[V:1] d8 :|]  
[V:2] [d8f8] :|]  
[V:3] d8 :|]  
[V:4] D8 :|]  



